src/svgs/ellipsis.svg

<svg fill="none" height="15" viewBox="0 0 59 15" width="59" xmlns="http://www.w3.org/2000/svg"><g fill="#00acd4"><path d="m29.0625 0c-1.4834 0-2.9334.439868-4.1668 1.26398-1.2333.82411-2.1946 1.99545-2.7623 3.36589-.5677 1.37045-.7162 2.87845-.4268 4.3333.2894 1.45483 1.0037 2.79123 2.0526 3.84013s2.3853 1.7632 3.8401 2.0526c1.4549.2894 2.9629.1409 4.3333-.4268 1.3705-.5677 2.5418-1.529 3.3659-2.7623.8241-1.2334 1.264-2.68344 1.264-4.1668-.0022-1.98844-.7931-3.8948-2.1992-5.30083-1.406-1.406043-3.3124-2.19693677-5.3008-2.19917zm0 13.125c-1.1125 0-2.2001-.3299-3.1251-.948s-1.646-1.4966-2.0717-2.52441c-.4258-1.02783-.5372-2.15883-.3201-3.24997.217-1.09115.7528-2.09343 1.5394-2.8801.7867-.78667 1.789-1.3224 2.8801-1.53944 1.0912-.21704 2.2222-.10565 3.25.3201 1.0278.42574 1.9063 1.14671 2.5244 2.07174.6181.92502.948 2.01256.948 3.12508-.0017 1.49132-.5949 2.9211-1.6494 3.9756s-2.4843 1.6477-3.9756 1.6494z"/><path d="m7.5 0c-1.48336 0-2.93341.439868-4.16677 1.26398-1.23337.82411-2.19467 1.99545-2.762323 3.36589-.56765739 1.37045-.716182 2.87845-.426793 4.3333.289389 1.45483 1.003696 2.79123 2.052586 3.84013 1.0489 1.0489 2.38527 1.7632 3.84012 2.0526 1.45486.2894 2.96286.1409 4.33328-.4268 1.3705-.5677 2.5418-1.529 3.3659-2.7623.8241-1.2334 1.264-2.68344 1.264-4.1668-.0022-1.98844-.7931-3.8948-2.1992-5.30083-1.406-1.406043-3.31236-2.19693677-5.3008-2.19917zm0 13.125c-1.11252 0-2.20005-.3299-3.12508-.948s-1.646-1.4966-2.07174-2.52441c-.42574-1.02783-.53714-2.15883-.32009-3.24997.21704-1.09115.75277-2.09343 1.53944-2.8801s1.78895-1.3224 2.88009-1.53944 2.22214-.10565 3.24998.3201c1.0278.42574 1.9063 1.14671 2.5244 2.07174.6181.92502.948 2.01256.948 3.12508-.0017 1.49132-.5949 2.9211-1.6494 3.9756s-2.48428 1.6477-3.9756 1.6494z"/><path d="m50.625 0c-1.4834 0-2.9334.439868-4.1668 1.26398-1.2333.82411-2.1946 1.99545-2.7623 3.36589-.5677 1.37045-.7162 2.87845-.4268 4.3333.2894 1.45483 1.0037 2.79123 2.0526 3.84013s2.3853 1.7632 3.8401 2.0526c1.4549.2894 2.9629.1409 4.3333-.4268 1.3705-.5677 2.5418-1.529 3.3659-2.7623.8241-1.2334 1.264-2.68344 1.264-4.1668-.0022-1.98844-.7931-3.8948-2.1992-5.30083-1.406-1.406043-3.3124-2.19693677-5.3008-2.19917zm0 13.125c-1.1125 0-2.2001-.3299-3.1251-.948s-1.646-1.4966-2.0717-2.52441c-.4258-1.02783-.5372-2.15883-.3201-3.24997.217-1.09115.7528-2.09343 1.5394-2.8801.7867-.78667 1.789-1.3224 2.8801-1.53944 1.0912-.21704 2.2222-.10565 3.25.3201 1.0278.42574 1.9063 1.14671 2.5244 2.07174.6181.92502.948 2.01256.948 3.12508-.0017 1.49132-.5949 2.9211-1.6494 3.9756s-2.4843 1.6477-3.9756 1.6494z"/></g></svg>

<svg width="59" height="15" viewBox="0 0 59 15" fill="none" xmlns="http://www.w3.org/2000/svg">
<path d="M29.0625 0C27.5791 0 26.1291 0.439868 24.8957 1.26398C23.6624 2.08809 22.7011 3.25943 22.1334 4.62987C21.5657 6.00032 21.4172 7.50832 21.7066 8.96317C21.996 10.418 22.7103 11.7544 23.7592 12.8033C24.8081 13.8522 26.1445 14.5665 27.5993 14.8559C29.0542 15.1453 30.5622 14.9968 31.9326 14.4291C33.3031 13.8614 34.4744 12.9001 35.2985 11.6668C36.1226 10.4334 36.5625 8.98336 36.5625 7.5C36.5603 5.51156 35.7694 3.6052 34.3633 2.19917C32.9573 0.793127 31.0509 0.00223323 29.0625 0V0ZM29.0625 13.125C27.95 13.125 26.8624 12.7951 25.9374 12.177C25.0124 11.5589 24.2914 10.6804 23.8657 9.65259C23.4399 8.62476 23.3285 7.49376 23.5456 6.40262C23.7626 5.31147 24.2984 4.30919 25.085 3.52252C25.8717 2.73585 26.874 2.20012 27.9651 1.98308C29.0563 1.76604 30.1873 1.87743 31.2151 2.30318C32.2429 2.72892 33.1214 3.44989 33.7395 4.37492C34.3576 5.29994 34.6875 6.38748 34.6875 7.5C34.6858 8.99132 34.0926 10.4211 33.0381 11.4756C31.9836 12.5301 30.5538 13.1233 29.0625 13.125Z" fill="#00ACD4"/>
<path d="M7.5 0C6.01664 0 4.56659 0.439868 3.33323 1.26398C2.09986 2.08809 1.13856 3.25943 0.570907 4.62987C0.00324961 6.00032 -0.145275 7.50832 0.144114 8.96317C0.433503 10.418 1.14781 11.7544 2.1967 12.8033C3.2456 13.8522 4.58197 14.5665 6.03682 14.8559C7.49168 15.1453 8.99968 14.9968 10.3701 14.4291C11.7406 13.8614 12.9119 12.9001 13.736 11.6668C14.5601 10.4334 15 8.98336 15 7.5C14.9978 5.51156 14.2069 3.6052 12.8008 2.19917C11.3948 0.793127 9.48844 0.00223323 7.5 0V0ZM7.5 13.125C6.38748 13.125 5.29995 12.7951 4.37492 12.177C3.44989 11.5589 2.72892 10.6804 2.30318 9.65259C1.87744 8.62476 1.76604 7.49376 1.98309 6.40262C2.20013 5.31147 2.73586 4.30919 3.52253 3.52252C4.3092 2.73585 5.31148 2.20012 6.40262 1.98308C7.49376 1.76604 8.62476 1.87743 9.6526 2.30318C10.6804 2.72892 11.5589 3.44989 12.177 4.37492C12.7951 5.29994 13.125 6.38748 13.125 7.5C13.1233 8.99132 12.5301 10.4211 11.4756 11.4756C10.4211 12.5301 8.99132 13.1233 7.5 13.125V13.125Z" fill="#00ACD4"/>
<path d="M50.625 0C49.1416 0 47.6916 0.439868 46.4582 1.26398C45.2249 2.08809 44.2636 3.25943 43.6959 4.62987C43.1282 6.00032 42.9797 7.50832 43.2691 8.96317C43.5585 10.418 44.2728 11.7544 45.3217 12.8033C46.3706 13.8522 47.707 14.5665 49.1618 14.8559C50.6167 15.1453 52.1247 14.9968 53.4951 14.4291C54.8656 13.8614 56.0369 12.9001 56.861 11.6668C57.6851 10.4334 58.125 8.98336 58.125 7.5C58.1228 5.51156 57.3319 3.6052 55.9258 2.19917C54.5198 0.793127 52.6134 0.00223323 50.625 0V0ZM50.625 13.125C49.5125 13.125 48.4249 12.7951 47.4999 12.177C46.5749 11.5589 45.8539 10.6804 45.4282 9.65259C45.0024 8.62476 44.891 7.49376 45.1081 6.40262C45.3251 5.31147 45.8609 4.30919 46.6475 3.52252C47.4342 2.73585 48.4365 2.20012 49.5276 1.98308C50.6188 1.76604 51.7498 1.87743 52.7776 2.30318C53.8054 2.72892 54.6839 3.44989 55.302 4.37492C55.9201 5.29994 56.25 6.38748 56.25 7.5C56.2483 8.99132 55.6551 10.4211 54.6006 11.4756C53.5461 12.5301 52.1163 13.1233 50.625 13.125Z" fill="#00ACD4"/>
</svg>
